svgs/regular/bowling-ball-pin.svg

<svg xmlns="http://www.w3.org/2000/svg" viewBox="0 0 576 512"><!-- Font Awesome Pro 6.0.0-alpha2 by @fontawesome - https://fontawesome.com License - https://fontawesome.com/license (Commercial License) --><path d="M122.668 224C107.92 224 96 235.875 96 250.664C96 265.461 107.92 277.336 122.668 277.336C137.414 277.336 149.334 265.461 149.334 250.664C149.334 235.875 137.414 224 122.668 224ZM197.332 266.664C182.586 266.664 170.666 278.539 170.666 293.332S182.586 320 197.332 320C212.08 320 224 308.125 224 293.332S212.08 266.664 197.332 266.664ZM197.332 178.664C182.586 178.664 170.666 190.539 170.666 205.332S182.586 232 197.332 232C212.08 232 224 220.125 224 205.332S212.08 178.664 197.332 178.664ZM550.205 257.719C539.473 231.961 529.334 207.633 529.334 186.035C529.334 179.062 532.238 171.031 535.916 160.867C541.895 144.344 549.334 123.773 549.334 95.047C549.334 32.762 506.441 0.086 464.07 0H463.9C421.545 0 378.666 32.648 378.666 95.047C378.666 123.773 386.105 144.344 392.084 160.867C395.762 171.031 398.666 179.062 398.666 186.035C398.666 194.328 396.865 203.133 394.416 212.156C360.475 143.398 289.859 96 208 96C93.133 96 0 189.098 0 304S93.133 512 208 512C272.496 512 330.129 482.641 368.283 436.555C374.357 452.641 381.141 466.594 386.809 478.066C397.342 499.398 417.395 512 439.658 512H488.418C510.734 512 530.809 499.352 540.809 478.996C555.219 449.668 576 407.375 576 354.016C576 319.617 562.887 288.148 550.205 257.719ZM208 464C119.775 464 48 392.223 48 304S119.775 144 208 144S368 215.777 368 304S296.225 464 208 464ZM463.9 48H463.971C482.568 48.039 501.334 62.602 501.334 95.047C501.334 115.359 495.967 130.195 490.777 144.539C488.961 149.562 487.287 154.773 485.719 160.031H442.281C440.713 154.773 439.039 149.563 437.223 144.539C432.033 130.195 426.666 115.359 426.666 95.047C426.666 62.547 445.367 48 463.9 48ZM497.725 457.836C495.828 461.695 492.35 464 488.418 464H439.658C435.736 464 432.264 461.707 429.844 456.805C419.187 435.234 406.859 409.18 402.219 377.969C410.988 354.961 416 330.094 416 304C416 300.125 415.629 296.348 415.42 292.527C417.586 287.125 419.801 281.703 422.102 276.18C431.313 254.078 440.668 231.391 444.635 208.031H483.365C487.332 231.391 496.688 254.078 505.898 276.18C517.264 303.453 528 329.219 528 354.016C528 396.219 511.582 429.633 497.725 457.836Z"/></svg>

<svg xmlns="http://www.w3.org/2000/svg" viewBox="0 0 576 512"><!--! Font Awesome Pro 6.3.0 by @fontawesome - https://fontawesome.com License - https://fontawesome.com/license (Commercial License) Copyright 2023 Fonticons, Inc. --><path d="M122.7 224C107.9 224 96 235.9 96 250.7C96 265.5 107.9 277.3 122.7 277.3c14.75 0 26.67-11.88 26.67-26.67C149.3 235.9 137.4 224 122.7 224zM197.3 266.7c-14.75 0-26.67 11.88-26.67 26.67S182.6 320 197.3 320C212.1 320 224 308.1 224 293.3S212.1 266.7 197.3 266.7zM197.3 178.7c-14.75 0-26.67 11.88-26.67 26.67S182.6 232 197.3 232C212.1 232 224 220.1 224 205.3S212.1 178.7 197.3 178.7zM529.3 186c0-18.47 20-43.1 20-90.99c0-62.29-42.89-94.96-85.26-95.05c-42.36 0-85.4 32.65-85.4 95.05c0 46.97 20 72.66 20 90.99c0 8.293-1.801 17.1-4.25 26.12C360.5 143.4 289.9 96 208 96C93.13 96 0 189.1 0 304S93.13 512 208 512c64.5 0 122.1-29.36 160.3-75.45C383.7 477.3 398.1 512 439.7 512h48.76C560.8 512 576 372.3 576 354C576 290.5 529.3 232.6 529.3 186zM208 464c-88.22 0-160-71.78-160-160s71.78-160 160-160s160 71.78 160 160S296.2 464 208 464zM463.9 47.86c18.71 0 37.46 15.8 37.46 47.19c0 26.54-8.686 41.75-15.62 64.98h-43.44c-6.928-23.22-15.62-38.44-15.62-64.98C426.7 63.52 445.3 47.86 463.9 47.86zM497.7 457.8C495.8 461.7 492.3 464 488.4 464h-48.76c-3.922 0-7.395-2.293-9.814-7.195c-10.66-21.57-22.98-47.63-27.62-78.84C410.1 354.1 416 330.1 416 304c0-3.875-.3711-7.652-.5801-11.47c12.08-30.12 24.35-55.83 29.21-84.5h38.73C492.2 260.2 528 308.8 528 354C528 396.2 511.6 429.6 497.7 457.8z"/></svg>
